X:137
%%pagewidth 8.5in
%%vocalfont Baskerville10Pro 13
T:Old Sir Simon the King
M:9/8
L:1/8
K:G
%%score 1 2
V:1 clef-treble
V:2 clef-bass octave=-1
V:1
D|[B,G]2G G>AG[DG]2D&x3Ex2x3|[B,G]2G G>AG[DF]2D&x3^Cx2x3|
w:In~a humour I was* of late, As many good fellows* may be, To
w:That best might suit* my mind, So~I tra-vell'd up* and down, No
V:2
z|G,3C3B,3|E3A,3D3|
V:1
!<(![G,E]2E [CE]2E [CE]F!<)!G|"^sf"[CFA]2[EG] [DF]2[CE] [B,D]2 :||: D|
w:think~of no matters of state, But to seek~for good com-pa-ny. My
w:compa-ny I could find, Till I came~to the sight~of the Crown. Says
V:2
=C3B,3A,3|D,6G,2:||:z|
V:1
[DG]2G G>Bc[Fd]2D|[DG]2G G>AB[Ed]2E&x3=Fx2x3|
w:hostess was sick of the mumps, The maid was ill at her ease, The
w:old [Sir] Si-mon the king, [Says old Sir Si-mon the king, With~his
V:2
B,3G,3D,3|B,3G,3C,3|
V:1
!<(![G,E]2E [CE]2E [CE]^F!<)!G|"^sf"[CFA]2[EG][DF]2[CE][B,D]2:||
w:tapster was drunk in~his dumps, They were all of one dis-ease.
w:ale dropt hose, and~his Malm-sey nose, Sing hey ding~a ding, ding.]
V:2
C3B,3A,3|D,6G,2:||

